docs/science/genetics/image.svg

<svg xmlns="http://www.w3.org/2000/svg" xmlns:xlink="http://www.w3.org/1999/xlink" aria-hidden="true" viewBox="0 -2437 7854 4373.9"><style><![CDATA[g[data-mml-node=merror]>g{fill:red;stroke:red}g[data-mml-node=mtable]>line[data-line]{stroke-width:70px;fill:none}g[data-mml-node=mtable]>g>svg{overflow:visible}g[data-mml-node=maction][data-toggle]{cursor:pointer}]]></style><defs><path id="svg__github_work__MJX-216-TEX-N-32" d="M109 429q-27 0-43 18t-16 44q0 71 53 123t132 52q91 0 152-56t62-145q0-43-20-82t-48-68-80-74q-36-31-100-92l-59-56 76-1q157 0 167 5 7 2 24 89v3h40v-3q-1-3-13-91T421 3V0H50v31q0 7 6 15t30 35q29 32 50 56 9 10 34 37t34 37 29 33 28 34 23 30 21 32 15 29 13 32 7 30 3 33q0 63-34 109t-97 46q-33 0-58-17t-35-33-10-19q0-1 5-1 18 0 37-14t19-46q0-25-16-42t-45-18Z"/><path id="svg__github_work__MJX-216-TEX-N-41" d="M255 0q-15 3-115 3Q48 3 39 0h-7v46h15q72 3 92 42 1 3 53 157t103 308 53 155q3 8 18 8h10q20-1 24-7 2-2 108-319L617 67q7-13 19-16t51-5h30V0h-9q-9 3-127 3-123 0-144-3h-10v46h13q70 0 70 18 0 2-24 74l-24 71H229l-20-59q-20-59-20-65 0-13 20-26t50-13h5V0zm192 255L345 557 244 256q0-1 101-1z"/><path id="svg__github_work__MJX-216-TEX-N-31" d="m213 578-13-5q-14-5-40-10t-58-7H83v46h19q47 2 87 15t56 24 28 22q2 3 12 3 9 0 17-6V361l1-300q7-7 12-9t24-4 62-2h26V0h-11q-21 3-159 3-136 0-157-3H88v46h64q16 0 25 1t16 3 8 2 6 5 6 4z"/><path id="svg__github_work__MJX-216-TEX-N-61" d="M137 305h-22l-37 15-15 39q0 35 34 62t121 27q73 0 118-32t60-76q5-14 5-31t1-115v-70q0-48 5-66t21-18q15 0 20 16t5 53v36h40v-39q-1-40-3-47-9-30-35-47T400-6t-47 18-24 42v4l-2-3q-2-3-5-6t-8-9-12-11-15-12-18-11-22-8-26-6-31-3q-60 0-108 31t-48 87q0 21 7 40t27 41 48 37 78 28 110 15h14v22q0 34-6 50-22 71-97 71-18 0-34-1t-25-4-8-3q22-15 22-44 0-25-16-39Zm-11-199q0-31 24-55t59-25q38 0 67 23t39 60q2 7 3 66 0 58-1 58-8 0-21-1t-45-9-58-20-46-37-21-60Z"/><path id="svg__github_work__MJX-216-TEX-N-34" d="M462 0q-18 3-129 3-116 0-134-3h-9v46h58q7 0 17 2t14 5 7 8q1 2 1 54v50H28v46l151 231q153 232 155 233 2 2 21 2h18l6-6V211h92v-46h-92V66q0-7 6-12 8-7 57-8h29V0zM293 211v334L74 212l109-1z"/><path id="svg__github_work__MJX-216-TEX-M-1D670" d="M191 76q21-1 29-8t9-30q0-28-21-37H80Q48 1 38 7T28 38q0 13 1 19t11 12 30 7q19 0 19 2 1 1 28 127t56 256 32 138q7 24 45 24h23q39 0 46-24 3-8 31-138t56-256 29-127q0-2 19-2h4q26 0 35-17 3-6 3-21 0-27-18-35-4-2-83-2h-78q-22 7-22 37 0 27 16 35 5 2 22 3l15 1v1q0 2-7 34l-7 31H190l-7-31q-7-32-7-34-1-2 2-2zm127 145q-5 17-30 145t-25 153q0 7-1 8-1 0-1-7 0-27-25-155t-30-144q0-2 56-2t56 2Z"/><path id="svg__github_work__MJX-216-TEX-M-1D68A" d="M126 306q-21 0-36 15t-16 38q0 80 137 80 57 0 65-1 67-12 107-48t47-84q1-5 1-116V81q15-2 34-3t27-2 17-4 12-12 3-22q0-27-18-35-4-2-40-2-40 0-60 4t-27 9-24 22l-10-6Q284-6 205-6 135-6 92 39T48 141q0 41 31 71t79 44 94 22 90 7h5v5q0 25-22 45t-58 27q-9 1-43 1-35 0-39-1h-6l-1-4v-6q0-1-2-7t-2-8-4-7-5-8-7-6-8-5-11-3-13-2Zm6-166q0-25 25-47t67-23q45 0 78 17t42 46q2 6 3 42v36h-8q-83-2-145-21t-62-50Z"/></defs><g fill="currentColor" stroke="currentColor" stroke-width="0" data-mml-node="math"><g data-mml-node="mtable" transform="scale(1 -1)"><g data-mml-node="mtr"><g data-mml-node="mtd"><use xlink:href="#svg__github_work__MJX-216-TEX-N-32" data-mml-node="mn" transform="translate(2811 1687)"/><use xlink:href="#svg__github_work__MJX-216-TEX-N-41" data-mml-node="mi" transform="translate(3311 1687)"/></g><g data-mml-node="mtd"><use xlink:href="#svg__github_work__MJX-216-TEX-N-31" data-mml-node="mn" transform="translate(6238 1687)"/><use xlink:href="#svg__github_work__MJX-216-TEX-N-61" data-mml-node="mi" transform="translate(6738 1687)"/></g></g><g data-mml-node="mtr"><g data-mml-node="mtd"><use xlink:href="#svg__github_work__MJX-216-TEX-N-32" data-mml-node="mn" transform="translate(0 -7.9)"/><use xlink:href="#svg__github_work__MJX-216-TEX-N-41" data-mml-node="mi" transform="translate(500 -7.9)"/></g><g data-mml-node="mtd"><g data-mml-node="mstyle"><use xlink:href="#svg__github_work__MJX-216-TEX-N-34" data-mml-node="mn" transform="translate(2320 -7.9)scale(1.44)"/><g data-mjx-texclass="ORD" data-mml-node="TeXAtom"><g data-mml-node="mtext" transform="translate(3040 -7.9)scale(1.44)"><use xlink:href="#svg__github_work__MJX-216-TEX-M-1D670"/><use xlink:href="#svg__github_work__MJX-216-TEX-M-1D670" transform="translate(525)"/></g></g></g></g><g data-mml-node="mtd"><g data-mml-node="mstyle"><use xlink:href="#svg__github_work__MJX-216-TEX-N-32" data-mml-node="mn" transform="translate(5622 -7.9)scale(1.44)"/><g data-mjx-texclass="ORD" data-mml-node="TeXAtom"><g data-mml-node="mtext" transform="translate(6342 -7.9)scale(1.44)"><use xlink:href="#svg__github_work__MJX-216-TEX-M-1D670"/><use xlink:href="#svg__github_work__MJX-216-TEX-M-1D68A" transform="translate(525)"/></g></g></g></g></g><g data-mml-node="mtr"><g data-mml-node="mtd"><use xlink:href="#svg__github_work__MJX-216-TEX-N-31" data-mml-node="mn" transform="translate(125 -1687)"/><use xlink:href="#svg__github_work__MJX-216-TEX-N-61" data-mml-node="mi" transform="translate(625 -1687)"/></g><g data-mml-node="mtd"><g data-mml-node="mstyle"><use xlink:href="#svg__github_work__MJX-216-TEX-N-32" data-mml-node="mn" transform="translate(2320 -1687)scale(1.44)"/><g data-mjx-texclass="ORD" data-mml-node="TeXAtom"><g data-mml-node="mtext" transform="translate(3040 -1687)scale(1.44)"><use xlink:href="#svg__github_work__MJX-216-TEX-M-1D670"/><use xlink:href="#svg__github_work__MJX-216-TEX-M-1D68A" transform="translate(525)"/></g></g></g></g><g data-mml-node="mtd"><g data-mml-node="mstyle"><use xlink:href="#svg__github_work__MJX-216-TEX-N-31" data-mml-node="mn" transform="translate(5622 -1687)scale(1.44)"/><g data-mjx-texclass="ORD" data-mml-node="TeXAtom"><g data-mml-node="mtext" transform="translate(6342 -1687)scale(1.44)"><use xlink:href="#svg__github_work__MJX-216-TEX-M-1D68A"/><use xlink:href="#svg__github_work__MJX-216-TEX-M-1D68A" transform="translate(525)"/></g></g></g></g></g><line x1="1785" x2="1785" y1="-1937" y2="2437" class="mjx-solid" data-line="v"/><line x1="5087" x2="5087" y1="-1937" y2="2437" class="mjx-solid" data-line="v"/><line x2="7854" y1="1202" y2="1202" class="mjx-solid" data-line="h"/><line x2="7854" y1="-492.9" y2="-492.9" class="mjx-solid" data-line="h"/></g></g></svg>

<svg xmlns="http://www.w3.org/2000/svg" width="17.769ex" height="9.896ex" viewBox="0 -2437 7854 4373.9" xmlns:xlink="http://www.w3.org/1999/xlink" aria-hidden="true" style=""><style>mjx-container[jax="SVG"] {  direction: ltr;}mjx-container[jax="SVG"] &gt; svg {  overflow: visible;}mjx-container[jax="SVG"] &gt; svg a {  fill: blue;  stroke: blue;}mjx-assistive-mml {  position: absolute !important;  top: 0px;  left: 0px;  clip: rect(1px, 1px, 1px, 1px);  padding: 1px 0px 0px 0px !important;  border: 0px !important;  display: block !important;  width: auto !important;  overflow: hidden !important;  -webkit-touch-callout: none;  -webkit-user-select: none;  -khtml-user-select: none;  -moz-user-select: none;  -ms-user-select: none;  user-select: none;}mjx-assistive-mml[display="block"] {  width: 100% !important;}mjx-container[jax="SVG"][display="true"] {  display: block;  text-align: center;  margin: 1em 0;}mjx-container[jax="SVG"][display="true"][width="full"] {  display: flex;}mjx-container[jax="SVG"][justify="left"] {  text-align: left;}mjx-container[jax="SVG"][justify="right"] {  text-align: right;}g[data-mml-node="merror"] &gt; g {  fill: red;  stroke: red;}g[data-mml-node="merror"] &gt; rect[data-background] {  fill: yellow;  stroke: none;}g[data-mml-node="mtable"] &gt; line[data-line] {  stroke-width: 70px;  fill: none;}g[data-mml-node="mtable"] &gt; rect[data-frame] {  stroke-width: 70px;  fill: none;}g[data-mml-node="mtable"] &gt; .mjx-dashed {  stroke-dasharray: 140;}g[data-mml-node="mtable"] &gt; .mjx-dotted {  stroke-linecap: round;  stroke-dasharray: 0,140;}g[data-mml-node="mtable"] &gt; g &gt; svg {  overflow: visible;}[jax="SVG"] mjx-tool {  display: inline-block;  position: relative;  width: 0;  height: 0;}[jax="SVG"] mjx-tool &gt; mjx-tip {  position: absolute;  top: 0;  left: 0;}mjx-tool &gt; mjx-tip {  display: inline-block;  padding: .2em;  border: 1px solid #888;  font-size: 70%;  background-color: #F8F8F8;  color: black;  box-shadow: 2px 2px 5px #AAAAAA;}g[data-mml-node="maction"][data-toggle] {  cursor: pointer;}mjx-status {  display: block;  position: fixed;  left: 1em;  bottom: 1em;  min-width: 25%;  padding: .2em .4em;  border: 1px solid #888;  font-size: 90%;  background-color: #F8F8F8;  color: black;}foreignObject[data-mjx-xml] {  font-family: initial;  line-height: normal;  overflow: visible;}.MathJax path {  stroke-width: 3;}</style><defs><path id="MJX-216-TEX-N-32" d="M109 429Q82 429 66 447T50 491Q50 562 103 614T235 666Q326 666 387 610T449 465Q449 422 429 383T381 315T301 241Q265 210 201 149L142 93L218 92Q375 92 385 97Q392 99 409 186V189H449V186Q448 183 436 95T421 3V0H50V19V31Q50 38 56 46T86 81Q115 113 136 137Q145 147 170 174T204 211T233 244T261 278T284 308T305 340T320 369T333 401T340 431T343 464Q343 527 309 573T212 619Q179 619 154 602T119 569T109 550Q109 549 114 549Q132 549 151 535T170 489Q170 464 154 447T109 429Z"></path><path id="MJX-216-TEX-N-41" d="M255 0Q240 3 140 3Q48 3 39 0H32V46H47Q119 49 139 88Q140 91 192 245T295 553T348 708Q351 716 366 716H376Q396 715 400 709Q402 707 508 390L617 67Q624 54 636 51T687 46H717V0H708Q699 3 581 3Q458 3 437 0H427V46H440Q510 46 510 64Q510 66 486 138L462 209H229L209 150Q189 91 189 85Q189 72 209 59T259 46H264V0H255ZM447 255L345 557L244 256Q244 255 345 255H447Z"></path><path id="MJX-216-TEX-N-31" d="M213 578L200 573Q186 568 160 563T102 556H83V602H102Q149 604 189 617T245 641T273 663Q275 666 285 666Q294 666 302 660V361L303 61Q310 54 315 52T339 48T401 46H427V0H416Q395 3 257 3Q121 3 100 0H88V46H114Q136 46 152 46T177 47T193 50T201 52T207 57T213 61V578Z"></path><path id="MJX-216-TEX-N-61" d="M137 305T115 305T78 320T63 359Q63 394 97 421T218 448Q291 448 336 416T396 340Q401 326 401 309T402 194V124Q402 76 407 58T428 40Q443 40 448 56T453 109V145H493V106Q492 66 490 59Q481 29 455 12T400 -6T353 12T329 54V58L327 55Q325 52 322 49T314 40T302 29T287 17T269 6T247 -2T221 -8T190 -11Q130 -11 82 20T34 107Q34 128 41 147T68 188T116 225T194 253T304 268H318V290Q318 324 312 340Q290 411 215 411Q197 411 181 410T156 406T148 403Q170 388 170 359Q170 334 154 320ZM126 106Q126 75 150 51T209 26Q247 26 276 49T315 109Q317 116 318 175Q318 233 317 233Q309 233 296 232T251 223T193 203T147 166T126 106Z"></path><path id="MJX-216-TEX-N-34" d="M462 0Q444 3 333 3Q217 3 199 0H190V46H221Q241 46 248 46T265 48T279 53T286 61Q287 63 287 115V165H28V211L179 442Q332 674 334 675Q336 677 355 677H373L379 671V211H471V165H379V114Q379 73 379 66T385 54Q393 47 442 46H471V0H462ZM293 211V545L74 212L183 211H293Z"></path><path id="MJX-216-TEX-M-1D670" d="M191 76Q212 75 220 68T229 38Q229 10 208 1H129H80Q48 1 38 7T28 38Q28 51 29 57T40 69T70 76Q89 76 89 78Q90 79 117 205T173 461T205 599Q212 623 250 623H262H273Q312 623 319 599Q322 591 350 461T406 205T435 78Q435 76 454 76H458Q484 76 493 59Q496 53 496 38Q496 11 478 3Q474 1 395 1H317Q295 8 295 38Q295 65 311 73Q316 75 333 76L348 77V78Q348 80 341 112L334 143H190L183 112Q176 80 176 78Q175 76 178 76Q180 76 191 76ZM318 221Q313 238 288 366T263 519Q263 526 262 527Q261 527 261 520Q261 493 236 365T206 221Q206 219 262 219T318 221Z"></path><path id="MJX-216-TEX-M-1D68A" d="M126 306Q105 306 90 321T74 359Q74 439 211 439Q268 439 276 438Q343 426 383 390T430 306Q431 301 431 190V81Q446 79 465 78T492 76T509 72T521 60T524 38Q524 11 506 3Q502 1 466 1Q426 1 406 5T379 14T355 36L345 30Q284 -6 205 -6Q135 -6 92 39T48 141Q48 182 79 212T158 256T252 278T342 285H347V290Q347 315 325 335T267 362Q258 363 224 363Q189 363 185 362H179L178 358Q178 353 178 352T176 345T174 337T170 330T165 322T158 316T150 311T139 308T126 306ZM132 140Q132 115 157 93T224 70Q269 70 302 87T344 133Q346 139 347 175V211H339Q256 209 194 190T132 140Z"></path></defs><g stroke="currentColor" fill="currentColor" stroke-width="0" transform="matrix(1 0 0 -1 0 0)"><g data-mml-node="math"><g data-mml-node="mtable"><g data-mml-node="mtr" transform="translate(0, 1687)"><g data-mml-node="mtd" transform="translate(625, 0)"></g><g data-mml-node="mtd" transform="translate(2811, 0)"><g data-mml-node="mn"><use xlink:href="#MJX-216-TEX-N-32"></use></g><g data-mml-node="mi" transform="translate(500, 0)"><use xlink:href="#MJX-216-TEX-N-41"></use></g></g><g data-mml-node="mtd" transform="translate(6238, 0)"><g data-mml-node="mn"><use xlink:href="#MJX-216-TEX-N-31"></use></g><g data-mml-node="mi" transform="translate(500, 0)"><use xlink:href="#MJX-216-TEX-N-61"></use></g></g></g><g data-mml-node="mtr" transform="translate(0, -7.9)"><g data-mml-node="mtd"><g data-mml-node="mn"><use xlink:href="#MJX-216-TEX-N-32"></use></g><g data-mml-node="mi" transform="translate(500, 0)"><use xlink:href="#MJX-216-TEX-N-41"></use></g></g><g data-mml-node="mtd" transform="translate(2320, 0)"><g data-mml-node="mstyle" transform="scale(1.44)"><g data-mml-node="mn"><use xlink:href="#MJX-216-TEX-N-34"></use></g><g data-mml-node="TeXAtom" data-mjx-texclass="ORD" transform="translate(500, 0)"><g data-mml-node="mtext"><use xlink:href="#MJX-216-TEX-M-1D670"></use><use xlink:href="#MJX-216-TEX-M-1D670" transform="translate(525, 0)"></use></g></g></g></g><g data-mml-node="mtd" transform="translate(5622, 0)"><g data-mml-node="mstyle" transform="scale(1.44)"><g data-mml-node="mn"><use xlink:href="#MJX-216-TEX-N-32"></use></g><g data-mml-node="TeXAtom" data-mjx-texclass="ORD" transform="translate(500, 0)"><g data-mml-node="mtext"><use xlink:href="#MJX-216-TEX-M-1D670"></use><use xlink:href="#MJX-216-TEX-M-1D68A" transform="translate(525, 0)"></use></g></g></g></g></g><g data-mml-node="mtr" transform="translate(0, -1687)"><g data-mml-node="mtd" transform="translate(125, 0)"><g data-mml-node="mn"><use xlink:href="#MJX-216-TEX-N-31"></use></g><g data-mml-node="mi" transform="translate(500, 0)"><use xlink:href="#MJX-216-TEX-N-61"></use></g></g><g data-mml-node="mtd" transform="translate(2320, 0)"><g data-mml-node="mstyle" transform="scale(1.44)"><g data-mml-node="mn"><use xlink:href="#MJX-216-TEX-N-32"></use></g><g data-mml-node="TeXAtom" data-mjx-texclass="ORD" transform="translate(500, 0)"><g data-mml-node="mtext"><use xlink:href="#MJX-216-TEX-M-1D670"></use><use xlink:href="#MJX-216-TEX-M-1D68A" transform="translate(525, 0)"></use></g></g></g></g><g data-mml-node="mtd" transform="translate(5622, 0)"><g data-mml-node="mstyle" transform="scale(1.44)"><g data-mml-node="mn"><use xlink:href="#MJX-216-TEX-N-31"></use></g><g data-mml-node="TeXAtom" data-mjx-texclass="ORD" transform="translate(500, 0)"><g data-mml-node="mtext"><use xlink:href="#MJX-216-TEX-M-1D68A"></use><use xlink:href="#MJX-216-TEX-M-1D68A" transform="translate(525, 0)"></use></g></g></g></g></g><line data-line="v" class="mjx-solid" x1="1785" y1="-1937" x2="1785" y2="2437"></line><line data-line="v" class="mjx-solid" x1="5087" y1="-1937" x2="5087" y2="2437"></line><line data-line="h" class="mjx-solid" x1="0" y1="1202" x2="7854" y2="1202"></line><line data-line="h" class="mjx-solid" x1="0" y1="-492.9" x2="7854" y2="-492.9"></line></g></g></g></svg>
